img/keyfeature-chat.svg

<svg fill="none" height="64" viewBox="0 0 64 64" width="64" xmlns="http://www.w3.org/2000/svg"><rect fill="#151923" height="64" rx="8" width="64"/><path clip-rule="evenodd" d="m4 0c-2.20898 0-4 1.79077-4 4v8c0 2.2092 1.79102 4 4 4h24v-12c0-2.20923-1.791-4-4-4zm10 10c1.1045 0 2-.89551 2-2s-.8955-2-2-2-2 .89551-2 2 .8955 2 2 2zm8-2c0 1.10449-.8955 2-2 2s-2-.89551-2-2 .8955-2 2-2 2 .89551 2 2zm-14 2c1.10449 0 2-.89551 2-2s-.89551-2-2-2-2 .89551-2 2 .89551 2 2 2z" fill="#808ba8" fill-rule="evenodd" transform="translate(24 32)"/><path d="m24 0h-24v12c0 2.2092 1.79102 4 4 4h5.07031c1.38279-2.3914 3.96879-4 6.92969-4h12v-8c0-2.20923-1.791-4-4-4z" fill="#edf0f5" transform="translate(12 16)"/></svg>

<svg width="64" height="64" viewBox="0 0 64 64" fill="none" xmlns="http://www.w3.org/2000/svg">
<rect width="64" height="64" rx="8" fill="#151923"/>
<path fill-rule="evenodd" clip-rule="evenodd" d="M4 0C1.79102 0 0 1.79077 0 4V12C0 14.2092 1.79102 16 4 16H28V4C28 1.79077 26.209 0 24 0H4ZM14 10C15.1045 10 16 9.10449 16 8C16 6.89551 15.1045 6 14 6C12.8955 6 12 6.89551 12 8C12 9.10449 12.8955 10 14 10ZM22 8C22 9.10449 21.1045 10 20 10C18.8955 10 18 9.10449 18 8C18 6.89551 18.8955 6 20 6C21.1045 6 22 6.89551 22 8ZM8 10C9.10449 10 10 9.10449 10 8C10 6.89551 9.10449 6 8 6C6.89551 6 6 6.89551 6 8C6 9.10449 6.89551 10 8 10Z" transform="translate(24 32)" fill="#808BA8"/>
<path d="M24 0H0V12C0 14.2092 1.79102 16 4 16H9.07031C10.4531 13.6086 13.0391 12 16 12H28V4C28 1.79077 26.209 0 24 0Z" transform="translate(12 16)" fill="#EDF0F5"/>
</svg>
